works/GoSurf/app/img/arrow-right.svg

<svg width="25" height="21" viewBox="0 0 25 21" fill="none" xmlns="http://www.w3.org/2000/svg">
<path d="M15.8668 19.5874L24.0804 11.4366C24.8328 10.6854 24.8328 9.46621 24.0804 8.71758L15.8668 0.561968C15.1081 -0.189173 13.88 -0.185404 13.1214 0.561968C12.3702 1.31437 12.3702 2.52856 13.1214 3.28096L17.9265 8.04838L2.5123 8.04838C1.39879 8.04838 0.497906 8.94802 0.497906 10.0615C0.497906 11.1738 1.39879 12.0747 2.5123 12.0747L17.9555 12.0747L13.1214 16.8672C12.3702 17.6183 12.3702 18.8338 13.1214 19.5849C13.8788 20.3373 15.1068 20.3386 15.8668 19.5875V19.5874Z" fill="white"/>
</svg>

<svg width="25" height="21" fill="none" xmlns="http://www.w3.org/2000/svg"><path d="M15.867 19.587l8.213-8.15a1.92 1.92 0 000-2.72L15.867.563a1.958 1.958 0 00-2.746 0 1.922 1.922 0 000 2.719l4.806 4.767H2.512a2.012 2.012 0 100 4.027h15.444l-4.835 4.792a1.92 1.92 0 000 2.718 1.953 1.953 0 002.746.002z" fill="#fff"/></svg>
